X: 28380
T: Muineira De Poio
R: jig
M: 6/8
K: Fmajor
[K: Cmix]
GA|BAB GAB|AcA FGA|BAB G2A|GEC CGA|
BAB GAB|AcA FGA|BAB GcA|G3- G||
|:cA|FGA EGF|DFE CEF|AGE GFD|F2E CcA|
FGA EGF|DFE CEF|AGE GFD|C3- C:|
|:ED|EFD =B,FE|GEC- CEF|AGE GFD|F2E CED|
EFD =B,FE|GEC- CEF|GEG FD=B,|C3- C:|

